polaris-icons/icons/newicons/DragDropMajor.svg

<svg width="20" height="20" viewBox="0 0 20 20" fill="none" xmlns="http://www.w3.org/2000/svg">
<path d="M3 5.75C3 4.23122 4.23122 3 5.75 3C6.16421 3 6.5 3.33579 6.5 3.75C6.5 4.16421 6.16421 4.5 5.75 4.5C5.05964 4.5 4.5 5.05964 4.5 5.75C4.5 6.16421 4.16421 6.5 3.75 6.5C3.33579 6.5 3 6.16421 3 5.75Z" fill="black"/>
<path d="M5.75 17C4.23122 17 3 15.7688 3 14.25C3 13.8358 3.33579 13.5 3.75 13.5C4.16421 13.5 4.5 13.8358 4.5 14.25C4.5 14.9404 5.05964 15.5 5.75 15.5C6.16421 15.5 6.5 15.8358 6.5 16.25C6.5 16.6642 6.16421 17 5.75 17Z" fill="black"/>
<path d="M17 5.75C17 4.23122 15.7688 3 14.25 3C13.8358 3 13.5 3.33579 13.5 3.75C13.5 4.16421 13.8358 4.5 14.25 4.5C14.9404 4.5 15.5 5.05964 15.5 5.75C15.5 6.16421 15.8358 6.5 16.25 6.5C16.6642 6.5 17 6.16421 17 5.75Z" fill="black"/>
<path d="M3.75 8.25C4.16421 8.25 4.5 8.58579 4.5 9V11C4.5 11.4142 4.16421 11.75 3.75 11.75C3.33579 11.75 3 11.4142 3 11V9C3 8.58579 3.33579 8.25 3.75 8.25Z" fill="black"/>
<path d="M11 4.5C11.4142 4.5 11.75 4.16421 11.75 3.75C11.75 3.33579 11.4142 3 11 3H9C8.58579 3 8.25 3.33579 8.25 3.75C8.25 4.16421 8.58579 4.5 9 4.5L11 4.5Z" fill="black"/>
<path d="M7 8.75C7 7.7835 7.7835 7 8.75 7H13.25C14.2165 7 15 7.7835 15 8.75V9.5C15 9.91421 14.6642 10.25 14.25 10.25C13.8358 10.25 13.5 9.91421 13.5 9.5V8.75C13.5 8.61193 13.3881 8.5 13.25 8.5H8.75C8.61193 8.5 8.5 8.61193 8.5 8.75V13.25C8.5 13.3881 8.61193 13.5 8.75 13.5H9.5C9.91421 13.5 10.25 13.8358 10.25 14.25C10.25 14.6642 9.91421 15 9.5 15H8.75C7.7835 15 7 14.2165 7 13.25V8.75Z" fill="black"/>
<path d="M11.3609 10.7231C11.1794 10.659 10.9771 10.7049 10.841 10.8411C10.7048 10.9772 10.6589 11.1795 10.723 11.361L12.8444 17.3714C12.9057 17.5452 13.0576 17.6711 13.2397 17.6992C13.4219 17.7272 13.6047 17.6528 13.7154 17.5056L14.8871 15.9479L15.9246 16.9854C16.1199 17.1806 16.4365 17.1806 16.6317 16.9854L16.9853 16.6318C17.1805 16.4365 17.1805 16.12 16.9853 15.9247L15.9478 14.8872L17.5055 13.7155C17.6528 13.6047 17.7272 13.422 17.6991 13.2398C17.6711 13.0577 17.5451 12.9058 17.3713 12.8444L11.3609 10.7231Z" fill="black"/>
</svg>

<svg viewBox="0 0 20 20" fill="none" xmlns="http://www.w3.org/2000/svg"><path d="M3 5.75a2.75 2.75 0 0 1 2.75-2.75.75.75 0 0 1 0 1.5c-.69 0-1.25.56-1.25 1.25a.75.75 0 0 1-1.5 0Z" fill="#000"/><path d="M5.75 17a2.75 2.75 0 0 1-2.75-2.75.75.75 0 0 1 1.5 0c0 .69.56 1.25 1.25 1.25a.75.75 0 0 1 0 1.5Z" fill="#000"/><path d="M17 5.75a2.75 2.75 0 0 0-2.75-2.75.75.75 0 0 0 0 1.5c.69 0 1.25.56 1.25 1.25a.75.75 0 0 0 1.5 0Z" fill="#000"/><path d="M3.75 8.25a.75.75 0 0 1 .75.75v2a.75.75 0 0 1-1.5 0v-2a.75.75 0 0 1 .75-.75Z" fill="#000"/><path d="M11 4.5a.75.75 0 0 0 0-1.5h-2a.75.75 0 0 0 0 1.5h2Z" fill="#000"/><path d="M7 8.75c0-.966.784-1.75 1.75-1.75h4.5c.966 0 1.75.784 1.75 1.75v.75a.75.75 0 0 1-1.5 0v-.75a.25.25 0 0 0-.25-.25h-4.5a.25.25 0 0 0-.25.25v4.5c0 .138.112.25.25.25h.75a.75.75 0 0 1 0 1.5h-.75a1.75 1.75 0 0 1-1.75-1.75v-4.5Z" fill="#000"/><path d="M11.36 10.723a.5.5 0 0 0-.637.638l2.121 6.01a.5.5 0 0 0 .871.135l1.172-1.558 1.038 1.037a.5.5 0 0 0 .707 0l.353-.353a.5.5 0 0 0 0-.707l-1.037-1.038 1.558-1.171a.5.5 0 0 0-.135-.872l-6.01-2.12Z" fill="#000"/></svg>
